X:1
T:Title
%%score 1 2
L:1/8
Q:1/4=88
M:3/4
K:Ab
V:1 treble nm="Grand Piano, Soprano"
V:2 bass nm="Choir Pad, Gatwick, 77.77 D"
V:1
 [Ec]>[Fd] [Ec]3 [DB] | [Ec]>[DB] [CA]4 | [FA]>[DF] [CE]3 [EA] | [=DB]>[Dc] [EB]4 | %4
w: By~George~Coles~Stebbins,~1887 * * *||||
 [Ec]>[Fd] [Ec]3 [EB] | [Ec]>[GB] [FA]4 | [FA]>[DF] [CE]3 [CA] | [DB]>[Ec] [CA]4 | G>A B3 =A | %9
w: |||||
 B>=A c4 | [GB]>[Ac] [Bd]3 [=Ac] | [Bd]>[_c=d] [=ce]4 | [ce]>[Bd] [Ac]3 [AB] | [Gc]>[GB] [FA]4 | %14
w: |||||
 [FA]>[DF] [CE]3 [CA] | [DB]>[Ec] [CA]4- | [CA]4 z2 |] %17
w: |||
V:2
 [A,,A,]>[A,,A,] [A,,A,]3 [A,,A,] | [E,G,]>[E,G,] [A,,A,]4 | [D,A,]>[D,A,] [A,,A,]3 [C,A,] | %3
 [B,,A,]>[B,,A,] [E,G,]4 | [A,,A,]>[A,,A,] [A,,A,]3 [A,,A,] | [E,G,]>[E,D] [F,C]4 | %6
 [D,D]>[D,A,] [E,A,]3 [E,A,] | [E,G,]>[E,G,] [A,,A,]4 | B,>[K:treble]C D3 C | D>=D E4 | z6 | z6 | %12
 [A,E]>[A,E] [A,E]3 [A,D] | [E,E]>[E,D] [F,C]4 | [D,D]>[D,A,] [E,A,]3 [E,A,] | %15
 [E,G,]>[E,G,] [A,,A,]4- | [A,,A,]4 z2 |] %17

